!!!SOCIAL_FUNCTION:	miscellaneous songs
!!!PDT:	1943
!!!OTL: No_93_I_Wish_I_Was_in_Butte_Inlet.krn
!!!REG: British Columbia
**kern
*staff1
=1-
*clefF4
*k[b-e-a-d-]
*M2/4
4r
4f\
=2
4a-\
8.f\L
16e-\Jk
=3
[2e-\
=4
4e-\]
4c\
=5
2B-\
=6
4c\
8B-\L
8B-\J
=7
[2e-\
=8
4e-\]
4c\
=9
4B-\
8.A-\L
16F\Jk
=10||
*M3/4
2.F\
=11||
*M2/4
8E-\
8r
8.F\L
16F\Jk
=12||
*M3/4
2.B-\
=13||
*M2/4
4A-\
8F\L
8E-\J
=14
8.F\L
16E-\Jk
4F\
==
*-
